weather-icons/wi-day-sunny.svg

<?xml version="1.0" encoding="UTF-8" standalone="no"?>
<svg
   xmlns:dc="http://purl.org/dc/elements/1.1/"
   xmlns:cc="http://creativecommons.org/ns#"
   xmlns:rdf="http://www.w3.org/1999/02/22-rdf-syntax-ns#"
   xmlns:svg="http://www.w3.org/2000/svg"
   xmlns="http://www.w3.org/2000/svg"
   xmlns:sodipodi="http://sodipodi.sourceforge.net/DTD/sodipodi-0.dtd"
   xmlns:inkscape="http://www.inkscape.org/namespaces/inkscape"
   width="100px"
   height="100px"
   viewBox="0 0 100 100"
   version="1.1"
   id="svg10016"
   sodipodi:docname="wi-day-sunny.svg"
   inkscape:version="1.0.2 (e86c870879, 2021-01-15)">
  <metadata
     id="metadata10022">
    <rdf:RDF>
      <cc:Work
         rdf:about="">
        <dc:format>image/svg+xml</dc:format>
        <dc:type
           rdf:resource="http://purl.org/dc/dcmitype/StillImage" />
      </cc:Work>
    </rdf:RDF>
  </metadata>
  <defs
     id="defs10020" />
  <sodipodi:namedview
     pagecolor="#ffffff"
     bordercolor="#666666"
     borderopacity="1"
     objecttolerance="10"
     gridtolerance="10"
     guidetolerance="10"
     inkscape:pageopacity="0"
     inkscape:pageshadow="2"
     inkscape:window-width="1920"
     inkscape:window-height="1016"
     id="namedview10018"
     showgrid="false"
     inkscape:zoom="7.94"
     inkscape:cx="50"
     inkscape:cy="50"
     inkscape:window-x="0"
     inkscape:window-y="0"
     inkscape:window-maximized="1"
     inkscape:current-layer="svg10016" />
  <g
     id="surface1"
     style="fill:#ffff00">
    <path
       style="fill:#ffff00;fill-opacity:1;fill-rule:nonzero;stroke:none"
       d="m 14.566406,48.734375 c 0,-0.800781 0.265625,-1.5 0.832032,-2.066406 0.566406,-0.535157 1.269531,-0.800781 2,-0.800781 h 6.800781 c 0.765625,0 1.402343,0.265624 1.933593,0.832031 0.5,0.566406 0.765626,1.234375 0.765626,2.035156 0,0.800781 -0.230469,1.464844 -0.730469,2.03125 -0.5,0.566406 -1.167969,0.835937 -1.933594,0.835937 h -6.800781 c -0.765625,0 -1.433594,-0.269531 -2,-0.835937 -0.566406,-0.566406 -0.867188,-1.230469 -0.867188,-2.03125 z m 9.535156,23.097656 c 0,-0.765625 0.265626,-1.433593 0.765626,-2.03125 l 4.898437,-4.765625 c 0.5,-0.535156 1.167969,-0.769531 1.96875,-0.769531 0.800781,0 1.464844,0.269531 2,0.769531 0.53125,0.5 0.800781,1.132813 0.800781,1.898438 0,0.800781 -0.269531,1.53125 -0.800781,2.132812 L 29,73.800781 c -1.367188,1.066407 -2.734375,1.066407 -4.101562,0 -0.53125,-0.535156 -0.796876,-1.199219 -0.796876,-1.96875 z m 0,-46.132812 c 0,-0.765625 0.265626,-1.433594 0.765626,-2.03125 0.667968,-0.566407 1.367187,-0.835938 2.132812,-0.835938 0.734375,0 1.398438,0.269531 1.964844,0.800781 l 4.769531,4.902344 c 0.53125,0.5 0.800781,1.164063 0.800781,1.964844 0,0.800781 -0.269531,1.464844 -0.800781,2 -0.535156,0.535156 -1.199219,0.800781 -2,0.800781 -0.800781,0 -1.46875,-0.265625 -1.96875,-0.800781 L 24.898438,27.734375 C 24.367188,27.199219 24.101562,26.5 24.101562,25.699219 Z m 8.5,23.035156 c 0,-3.101563 0.765626,-6 2.332032,-8.667969 C 36.5,37.398438 38.601562,35.265625 41.300781,33.699219 44,32.132812 46.867188,31.367188 49.964844,31.367188 c 2.335937,0 4.570312,0.464843 6.734375,1.398437 2.132812,0.933594 4,2.167969 5.535156,3.734375 1.566406,1.566406 2.800781,3.398438 3.699219,5.535156 0.898437,2.132813 1.367187,4.398438 1.367187,6.730469 0,3.132813 -0.765625,6.035156 -2.335937,8.699219 -1.566406,2.667968 -3.664063,4.769531 -6.332032,6.335937 -2.667968,1.566407 -5.566406,2.332031 -8.699218,2.332031 -3.132813,0 -6.035156,-0.765624 -8.699219,-2.332031 -2.667969,-1.566406 -4.769531,-3.667969 -6.335937,-6.335937 -1.5,-2.699219 -2.296876,-5.597656 -2.296876,-8.730469 z m 5.664063,0 c 0,3.265625 1.132813,6.03125 3.433594,8.332031 2.265625,2.300782 5.035156,3.46875 8.300781,3.46875 3.265625,0 6.035156,-1.167968 8.332031,-3.46875 2.300781,-2.300781 3.46875,-5.066406 3.46875,-8.332031 0,-3.199219 -1.167969,-5.933594 -3.46875,-8.234375 C 56.035156,38.234375 53.265625,37.101562 50,37.101562 c -3.234375,0 -6,1.132813 -8.265625,3.398438 -2.335937,2.300781 -3.46875,5.035156 -3.46875,8.234375 z m 8.867187,25.933594 c 0,-0.800781 0.265626,-1.46875 0.832032,-2 0.570312,-0.535157 1.234375,-0.800781 2,-0.800781 0.800781,0 1.5,0.265624 2.035156,0.800781 0.535156,0.53125 0.800781,1.199219 0.800781,2 v 6.632812 c 0,0.800781 -0.265625,1.5 -0.835937,2.066407 -0.566406,0.566406 -1.230469,0.832031 -2,0.832031 -0.765625,0 -1.464844,-0.265625 -2,-0.832031 -0.566406,-0.566407 -0.832032,-1.265626 -0.832032,-2.066407 z m 0,-51.667969 v -6.800781 c 0,-0.765625 0.265626,-1.433594 0.832032,-2 0.570312,-0.566407 1.234375,-0.867188 2.035156,-0.867188 0.800781,0 1.433594,0.269531 2,0.835938 0.566406,0.566406 0.832031,1.230469 0.832031,2 V 23 c 0,0.765625 -0.265625,1.398438 -0.832031,1.933594 -0.566406,0.53125 -1.234375,0.765625 -2,0.765625 -0.765625,0 -1.464844,-0.265625 -2,-0.765625 -0.535156,-0.5 -0.867188,-1.167969 -0.867188,-1.933594 z m 18.402344,43.933594 c 0,-0.765625 0.265625,-1.398438 0.765625,-1.867188 0.5,-0.53125 1.132813,-0.765625 1.867188,-0.765625 0.796875,0 1.464843,0.265625 2,0.765625 l 4.867187,4.765625 c 0.53125,0.566407 0.796875,1.269531 0.796875,2.035157 0,0.765624 -0.265625,1.433593 -0.796875,1.964843 -1.335937,1.035157 -2.667968,1.035157 -4,0 l -4.734375,-4.730469 c -0.5,-0.601562 -0.765625,-1.300781 -0.765625,-2.167968 z m 0,-36.398438 c 0,-0.835937 0.265625,-1.5 0.765625,-1.96875 l 4.734375,-4.898437 C 71.601562,23.132812 72.265625,22.867188 73,22.867188 c 0.800781,0 1.464844,0.265624 2,0.832031 0.566406,0.566406 0.832031,1.234375 0.832031,2 0,0.835937 -0.265625,1.535156 -0.796875,2.066406 l -4.867187,4.769531 c -0.601563,0.53125 -1.269531,0.796875 -2,0.796875 -0.769531,0 -1.367188,-0.265625 -1.867188,-0.796875 -0.5,-0.535156 -0.765625,-1.203125 -0.765625,-2 z m 7.53125,18.199219 c 0,-0.800781 0.265625,-1.46875 0.800782,-2.066406 0.53125,-0.535157 1.167968,-0.800781 1.898437,-0.800781 H 82.5 c 0.765625,0 1.433594,0.300781 2,0.867187 0.566406,0.566406 0.867188,1.230469 0.867188,2 0,0.765625 -0.300782,1.433594 -0.867188,2 -0.566406,0.566406 -1.234375,0.832031 -2,0.832031 h -6.734375 c -0.765625,0 -1.433594,-0.265625 -1.933594,-0.832031 -0.5,-0.566406 -0.765625,-1.199219 -0.765625,-2 z m 0,0"
       id="path10013" />
  </g>
</svg>

<?xml version="1.0" encoding="UTF-8"?>
<svg xmlns="http://www.w3.org/2000/svg" xmlns:xlink="http://www.w3.org/1999/xlink" width="100px" height="100px" viewBox="0 0 100 100" version="1.1">
<g id="surface1">
<path style=" stroke:none;fill-rule:nonzero;fill:rgb(0%,0%,0%);fill-opacity:1;" d="M 14.566406 48.734375 C 14.566406 47.933594 14.832031 47.234375 15.398438 46.667969 C 15.964844 46.132812 16.667969 45.867188 17.398438 45.867188 L 24.199219 45.867188 C 24.964844 45.867188 25.601562 46.132812 26.132812 46.699219 C 26.632812 47.265625 26.898438 47.933594 26.898438 48.734375 C 26.898438 49.535156 26.667969 50.199219 26.167969 50.765625 C 25.667969 51.332031 25 51.601562 24.234375 51.601562 L 17.433594 51.601562 C 16.667969 51.601562 16 51.332031 15.433594 50.765625 C 14.867188 50.199219 14.566406 49.535156 14.566406 48.734375 Z M 24.101562 71.832031 C 24.101562 71.066406 24.367188 70.398438 24.867188 69.800781 L 29.765625 65.035156 C 30.265625 64.5 30.933594 64.265625 31.734375 64.265625 C 32.535156 64.265625 33.199219 64.535156 33.734375 65.035156 C 34.265625 65.535156 34.535156 66.167969 34.535156 66.933594 C 34.535156 67.734375 34.265625 68.464844 33.734375 69.066406 L 29 73.800781 C 27.632812 74.867188 26.265625 74.867188 24.898438 73.800781 C 24.367188 73.265625 24.101562 72.601562 24.101562 71.832031 Z M 24.101562 25.699219 C 24.101562 24.933594 24.367188 24.265625 24.867188 23.667969 C 25.535156 23.101562 26.234375 22.832031 27 22.832031 C 27.734375 22.832031 28.398438 23.101562 28.964844 23.632812 L 33.734375 28.535156 C 34.265625 29.035156 34.535156 29.699219 34.535156 30.5 C 34.535156 31.300781 34.265625 31.964844 33.734375 32.5 C 33.199219 33.035156 32.535156 33.300781 31.734375 33.300781 C 30.933594 33.300781 30.265625 33.035156 29.765625 32.5 L 24.898438 27.734375 C 24.367188 27.199219 24.101562 26.5 24.101562 25.699219 Z M 32.601562 48.734375 C 32.601562 45.632812 33.367188 42.734375 34.933594 40.066406 C 36.5 37.398438 38.601562 35.265625 41.300781 33.699219 C 44 32.132812 46.867188 31.367188 49.964844 31.367188 C 52.300781 31.367188 54.535156 31.832031 56.699219 32.765625 C 58.832031 33.699219 60.699219 34.933594 62.234375 36.5 C 63.800781 38.066406 65.035156 39.898438 65.933594 42.035156 C 66.832031 44.167969 67.300781 46.433594 67.300781 48.765625 C 67.300781 51.898438 66.535156 54.800781 64.964844 57.464844 C 63.398438 60.132812 61.300781 62.234375 58.632812 63.800781 C 55.964844 65.367188 53.066406 66.132812 49.933594 66.132812 C 46.800781 66.132812 43.898438 65.367188 41.234375 63.800781 C 38.566406 62.234375 36.464844 60.132812 34.898438 57.464844 C 33.398438 54.765625 32.601562 51.867188 32.601562 48.734375 Z M 38.265625 48.734375 C 38.265625 52 39.398438 54.765625 41.699219 57.066406 C 43.964844 59.367188 46.734375 60.535156 50 60.535156 C 53.265625 60.535156 56.035156 59.367188 58.332031 57.066406 C 60.632812 54.765625 61.800781 52 61.800781 48.734375 C 61.800781 45.535156 60.632812 42.800781 58.332031 40.5 C 56.035156 38.234375 53.265625 37.101562 50 37.101562 C 46.765625 37.101562 44 38.234375 41.734375 40.5 C 39.398438 42.800781 38.265625 45.535156 38.265625 48.734375 Z M 47.132812 74.667969 C 47.132812 73.867188 47.398438 73.199219 47.964844 72.667969 C 48.535156 72.132812 49.199219 71.867188 49.964844 71.867188 C 50.765625 71.867188 51.464844 72.132812 52 72.667969 C 52.535156 73.199219 52.800781 73.867188 52.800781 74.667969 L 52.800781 81.300781 C 52.800781 82.101562 52.535156 82.800781 51.964844 83.367188 C 51.398438 83.933594 50.734375 84.199219 49.964844 84.199219 C 49.199219 84.199219 48.5 83.933594 47.964844 83.367188 C 47.398438 82.800781 47.132812 82.101562 47.132812 81.300781 Z M 47.132812 23 L 47.132812 16.199219 C 47.132812 15.433594 47.398438 14.765625 47.964844 14.199219 C 48.535156 13.632812 49.199219 13.332031 50 13.332031 C 50.800781 13.332031 51.433594 13.601562 52 14.167969 C 52.566406 14.734375 52.832031 15.398438 52.832031 16.167969 L 52.832031 23 C 52.832031 23.765625 52.566406 24.398438 52 24.933594 C 51.433594 25.464844 50.765625 25.699219 50 25.699219 C 49.234375 25.699219 48.535156 25.433594 48 24.933594 C 47.464844 24.433594 47.132812 23.765625 47.132812 23 Z M 65.535156 66.933594 C 65.535156 66.167969 65.800781 65.535156 66.300781 65.066406 C 66.800781 64.535156 67.433594 64.300781 68.167969 64.300781 C 68.964844 64.300781 69.632812 64.566406 70.167969 65.066406 L 75.035156 69.832031 C 75.566406 70.398438 75.832031 71.101562 75.832031 71.867188 C 75.832031 72.632812 75.566406 73.300781 75.035156 73.832031 C 73.699219 74.867188 72.367188 74.867188 71.035156 73.832031 L 66.300781 69.101562 C 65.800781 68.5 65.535156 67.800781 65.535156 66.933594 Z M 65.535156 30.535156 C 65.535156 29.699219 65.800781 29.035156 66.300781 28.566406 L 71.035156 23.667969 C 71.601562 23.132812 72.265625 22.867188 73 22.867188 C 73.800781 22.867188 74.464844 23.132812 75 23.699219 C 75.566406 24.265625 75.832031 24.933594 75.832031 25.699219 C 75.832031 26.535156 75.566406 27.234375 75.035156 27.765625 L 70.167969 32.535156 C 69.566406 33.066406 68.898438 33.332031 68.167969 33.332031 C 67.398438 33.332031 66.800781 33.066406 66.300781 32.535156 C 65.800781 32 65.535156 31.332031 65.535156 30.535156 Z M 73.066406 48.734375 C 73.066406 47.933594 73.332031 47.265625 73.867188 46.667969 C 74.398438 46.132812 75.035156 45.867188 75.765625 45.867188 L 82.5 45.867188 C 83.265625 45.867188 83.933594 46.167969 84.5 46.734375 C 85.066406 47.300781 85.367188 47.964844 85.367188 48.734375 C 85.367188 49.5 85.066406 50.167969 84.5 50.734375 C 83.933594 51.300781 83.265625 51.566406 82.5 51.566406 L 75.765625 51.566406 C 75 51.566406 74.332031 51.300781 73.832031 50.734375 C 73.332031 50.167969 73.066406 49.535156 73.066406 48.734375 Z M 73.066406 48.734375 "/>
</g>
</svg>
